public/style/workarea/images/icons/exe-image-icon-green.svg

<svg fill="none" height="25" viewBox="0 0 25 25" width="25" xmlns="http://www.w3.org/2000/svg"><g stroke="#0ba1a1" stroke-linecap="round" stroke-linejoin="round" stroke-width="2"><path d="m19.7427 3.81866h-14.00002c-1.10457 0-2 .89543-2 2v14.00004c0 1.1045.89543 2 2 2h14.00002c1.1045 0 2-.8955 2-2v-14.00004c0-1.10457-.8955-2-2-2z"/><path d="m21.7427 15.8187-5-5-11.00002 11"/><path d="m9.24268 10.8187c.82842 0 1.50002-.6716 1.50002-1.50004 0-.82842-.6716-1.5-1.50002-1.5-.82843 0-1.5.67158-1.5 1.5 0 .82844.67157 1.50004 1.5 1.50004z"/></g></svg>

<svg width="25" height="25" viewBox="0 0 25 25" fill="none" xmlns="http://www.w3.org/2000/svg">
<path d="M19.7427 3.81866H5.74268C4.63811 3.81866 3.74268 4.71409 3.74268 5.81866V19.8187C3.74268 20.9232 4.63811 21.8187 5.74268 21.8187H19.7427C20.8472 21.8187 21.7427 20.9232 21.7427 19.8187V5.81866C21.7427 4.71409 20.8472 3.81866 19.7427 3.81866Z" stroke="#0BA1A1" stroke-width="2" stroke-linecap="round" stroke-linejoin="round"/>
<path d="M21.7427 15.8187L16.7427 10.8187L5.74268 21.8187" stroke="#0BA1A1" stroke-width="2" stroke-linecap="round" stroke-linejoin="round"/>
<path d="M9.24268 10.8187C10.0711 10.8187 10.7427 10.1471 10.7427 9.31866C10.7427 8.49024 10.0711 7.81866 9.24268 7.81866C8.41425 7.81866 7.74268 8.49024 7.74268 9.31866C7.74268 10.1471 8.41425 10.8187 9.24268 10.8187Z" stroke="#0BA1A1" stroke-width="2" stroke-linecap="round" stroke-linejoin="round"/>
</svg>
